;FLAVOR:Marlin
;TIME:7971
;Filament used: 4.05065m
;Layer height: 0.2
;MINX:84.2
;MINY:84.2
;MINZ:0.2
;MAXX:135.8
;MAXY:135.8
;MAXZ:30
;Generated with Cura_SteamEngine 4.9.0
M140 S65
M105
M190 S65
M104 S250
M105
M109 S250
M82 ;absolute extrusion mode
; Ender 3 Custom Start G-code
G92 E0 ; Reset Extruder
G28 ; Home all axes
G1 Z2.0 F3000 ; Move Z Axis up little to prevent scratching of Heat Bed
G1 X0.1 Y20 Z0.3 F5000.0 ; Move to start position
G1 X0.1 Y200.0 Z0.3 F1500.0 E15 ; Draw the first line
G1 X0.4 Y200.0 Z0.3 F5000.0 ; Move to side a little
G1 X0.4 Y20 Z0.3 F1500.0 E30 ; Draw the second line
G92 E0 ; Reset Extruder
G1 Z2.0 F3000 ; Move Z Axis up little to prevent scratching of Heat Bed
G1 X5 Y20 Z0.3 F5000.0 ; Move over to prevent blob squish
G92 E0
G92 E0
G1 F1500 E-6.5
;LAYER_COUNT:150
;LAYER:0
M107
G0 F6000 X87.153 Y100.638 Z0.2
;TYPE:SKIRT
G1 F1500 E0
G1 F900 X87.786 Y100.166 E0.02626
G1 X88.463 Y99.76 E0.05252
G1 X89.178 Y99.425 E0.07878
G1 X89.924 Y99.163 E0.10508
G1 X90.691 Y98.979 E0.13131
G1 X91.474 Y98.873 E0.15759
G1 X92.103 Y98.845 E0.17853
G1 X94.667 Y98.842 E0.26381
G1 X95.042 Y98.282 E0.28623
G1 X95.425 Y97.808 E0.3065
G1 X96.836 Y96.194 E0.3778
G1 X97.401 Y95.612 E0.40478
G1 X97.858 Y95.217 E0.42487
G1 X99.515 Y93.895 E0.49537
G1 X99.73 Y93.738 E0.50423
G1 X99.828 Y93.139 E0.52442
G1 X99.837 Y93.104 E0.52562
G1 X99.846 Y92.052 E0.56061
G1 X99.893 Y91.264 E0.58686
G1 X100.019 Y90.484 E0.61314
G1 X100.223 Y89.721 E0.63941
G1 X100.503 Y88.983 E0.66567
G1 X100.856 Y88.277 E0.69192
G1 X101.279 Y87.61 E0.71819
G1 X101.768 Y86.989 E0.74448
G1 X102.154 Y86.577 E0.76326
G1 X102.271 Y86.461 E0.76874
G1 X102.859 Y85.934 E0.795
G1 X103.498 Y85.469 E0.82128
G1 X104.18 Y85.072 E0.84753
G1 X104.899 Y84.745 E0.8738
G1 X105.647 Y84.492 E0.90006
G1 X106.417 Y84.317 E0.92633
G1 X107.201 Y84.22 E0.9526
G1 X107.763 Y84.2 E0.97131
G1 X114.237 Y84.2 E1.18663
G1 X115.026 Y84.24 E1.21291
G1 X115.806 Y84.359 E1.23915
G1 X116.571 Y84.557 E1.26543
G1 X117.311 Y84.831 E1.29168
G1 X118.02 Y85.179 E1.31795
G1 X118.691 Y85.597 E1.34424
G1 X119.315 Y86.08 E1.37049
G1 X119.729 Y86.461 E1.3892
G1 X119.845 Y86.576 E1.39463
G1 X120.376 Y87.159 E1.42086
G1 X120.847 Y87.794 E1.44716
G1 X121.25 Y88.473 E1.47342
G1 X121.583 Y89.189 E1.49968
G1 X121.842 Y89.935 E1.52595
G1 X122.024 Y90.703 E1.5522
G1 X122.128 Y91.486 E1.57847
G1 X122.153 Y92.061 E1.59761
G1 X122.16 Y93.127 E1.63307
G1 X122.247 Y93.527 E1.64668
G1 X122.275 Y93.776 E1.65502
G1 X122.776 Y94.107 E1.67499
G1 X123.313 Y94.496 E1.69704
G1 X123.887 Y94.994 E1.72232
G1 X125.424 Y96.465 E1.79308
G1 X125.76 Y96.806 E1.809
G1 X126.361 Y97.538 E1.8405
G1 X127.306 Y98.842 E1.89407
G1 X127.924 Y98.845 E1.91462
G1 X128.712 Y98.889 E1.94087
G1 X129.492 Y99.013 E1.96714
G1 X130.256 Y99.214 E1.99341
G1 X130.995 Y99.492 E2.01968
G1 X131.702 Y99.843 E2.04593
G1 X132.37 Y100.264 E2.07219
G1 X132.993 Y100.751 E2.09849
G1 X133.446 Y101.177 E2.11917
G1 X133.562 Y101.295 E2.12468
G1 X134.087 Y101.885 E2.15095
G1 X134.549 Y102.526 E2.17723
G1 X134.944 Y103.21 E2.2035
G1 X135.267 Y103.93 E2.22974
G1 X135.517 Y104.679 E2.25601
G1 X135.689 Y105.45 E2.28228
G1 X135.782 Y106.234 E2.30854
G1 X135.8 Y106.763 E2.32614
G1 X135.8 Y113.19 E2.53991
G1 X135.76 Y113.979 E2.56618
G1 X135.641 Y114.759 E2.59243
G1 X135.443 Y115.524 E2.61871
G1 X135.169 Y116.264 E2.64495
G1 X134.821 Y116.973 E2.67122
G1 X134.403 Y117.644 E2.69752
G1 X133.92 Y118.268 E2.72376
G1 X133.515 Y118.705 E2.74358
G1 X133.351 Y118.869 E2.75129
G1 X132.765 Y119.399 E2.77757
G1 X132.129 Y119.866 E2.80382
G1 X131.449 Y120.267 E2.83007
G1 X130.731 Y120.597 E2.85635
G1 X129.984 Y120.852 E2.88261
G1 X129.215 Y121.031 E2.90887
G1 X128.431 Y121.131 E2.93516
G1 X127.904 Y121.154 E2.9527
G1 X127.307 Y121.159 E2.97256
G1 X126.353 Y122.472 E3.02654
G1 X125.952 Y122.978 E3.04801
G1 X125.422 Y123.539 E3.07368
G1 X123.881 Y125.013 E3.14461
G1 X123.294 Y125.52 E3.1704
G1 X122.766 Y125.9 E3.19204
G1 X122.277 Y126.222 E3.21151
G1 X122.179 Y126.834 E3.23213
G1 X122.162 Y126.897 E3.2343
G1 X122.154 Y127.945 E3.26916
G1 X122.108 Y128.733 E3.29541
G1 X121.982 Y129.513 E3.32169
G1 X121.778 Y130.275 E3.34793
G1 X121.498 Y131.014 E3.37421
G1 X121.145 Y131.72 E3.40046
G1 X120.723 Y132.387 E3.42672
G1 X120.235 Y133.008 E3.45298
G1 X119.822 Y133.446 E3.47301
G1 X119.704 Y133.562 E3.47851
G1 X119.114 Y134.087 E3.50478
G1 X118.473 Y134.549 E3.53106
G1 X117.789 Y134.944 E3.55733
G1 X117.069 Y135.267 E3.58358
G1 X116.32 Y135.517 E3.60984
G1 X115.549 Y135.689 E3.63611
G1 X114.765 Y135.782 E3.66237
G1 X114.236 Y135.8 E3.67998
G1 X107.763 Y135.8 E3.89527
G1 X106.974 Y135.76 E3.92155
G1 X106.194 Y135.641 E3.94779
G1 X105.429 Y135.443 E3.97407
G1 X104.689 Y135.169 E4.00032
G1 X103.98 Y134.821 E4.02659
G1 X103.309 Y134.403 E4.05288
G1 X102.685 Y133.92 E4.07912
G1 X102.271 Y133.539 E4.09784
G1 X102.154 Y133.423 E4.10332
G1 X101.622 Y132.839 E4.12959
G1 X101.152 Y132.205 E4.15584
G1 X100.749 Y131.526 E4.1821
G1 X100.416 Y130.81 E4.20837
G1 X100.157 Y130.064 E4.23463
G1 X99.975 Y129.296 E4.26088
G1 X99.871 Y128.513 E4.28716
G1 X99.846 Y127.941 E4.3062
G1 X99.839 Y126.966 E4.33863
G1 X99.744 Y126.507 E4.35422
G1 X99.724 Y126.258 E4.36253
G1 X99.511 Y126.102 E4.37131
G1 X97.845 Y124.771 E4.44223
G1 X97.377 Y124.365 E4.46284
G1 X96.825 Y123.794 E4.48925
G1 X95.423 Y122.189 E4.56013
G1 X94.934 Y121.569 E4.5864
G1 X94.778 Y121.331 E4.59586
G1 X94.302 Y121.304 E4.61172
G1 X93.522 Y121.18 E4.63799
G1 X93.462 Y121.164 E4.64005
G1 X92.06 Y121.154 E4.68669
G1 X91.272 Y121.108 E4.71294
G1 X90.492 Y120.983 E4.73921
G1 X89.729 Y120.78 E4.76547
G1 X88.99 Y120.5 E4.79176
G1 X88.284 Y120.148 E4.818
G1 X87.617 Y119.725 E4.84427
G1 X86.995 Y119.238 E4.87054
G1 X86.577 Y118.846 E4.8896
G1 X86.461 Y118.729 E4.89508
G1 X85.934 Y118.141 E4.92134
G1 X85.469 Y117.502 E4.94763
G1 X85.072 Y116.82 E4.97387
G1 X84.745 Y116.101 E5.00014
G1 X84.492 Y115.353 E5.02641
G1 X84.317 Y114.583 E5.05267
G1 X84.22 Y113.799 E5.07895
G1 X84.2 Y113.237 E5.09765
G1 X84.2 Y106.776 E5.31254
G1 X84.24 Y105.987 E5.33882
G1 X84.359 Y105.207 E5.36506
G1 X84.557 Y104.442 E5.39135
G1 X84.831 Y103.702 E5.41759
G1 X85.179 Y102.993 E5.44386
G1 X85.597 Y102.322 E5.47015
G1 X86.08 Y101.698 E5.4964
G1 X86.442 Y101.303 E5.51422
G1 X86.571 Y101.172 E5.52033
G1 X87.153 Y100.638 E5.5466
G0 F6000 X87.424 Y100.934
G1 F900 X88.042 Y100.476 E5.57219
G1 X88.704 Y100.085 E5.59776
G1 X89.404 Y99.765 E5.62336
G1 X90.133 Y99.519 E5.64895
G1 X90.883 Y99.351 E5.67451
G1 X91.647 Y99.261 E5.7001
G1 X92.104 Y99.245 E5.71531
G1 X94.887 Y99.242 E5.80787
G1 X94.946 Y99.143 E5.81171
G1 X95.375 Y98.505 E5.83728
G1 X95.726 Y98.072 E5.85582
G1 X97.137 Y96.458 E5.92712
G1 X97.674 Y95.904 E5.95278
G1 X98.108 Y95.529 E5.97186
G1 X99.765 Y94.207 E6.04236
G1 X100.099 Y93.964 E6.0561
G1 X100.1 Y93.943 E6.0568
G1 X100.227 Y93.184 E6.08239
G1 X100.237 Y93.148 E6.08364
G1 X100.246 Y92.055 E6.11999
G1 X100.293 Y91.288 E6.14555
G1 X100.418 Y90.529 E6.17113
G1 X100.622 Y89.787 E6.19673
G1 X100.902 Y89.071 E6.2223
G1 X101.254 Y88.387 E6.24788
G1 X101.676 Y87.744 E6.27347
G1 X102.162 Y87.148 E6.29904
G1 X102.436 Y86.861 E6.31224
G1 X102.553 Y86.745 E6.31772
G1 X103.127 Y86.233 E6.3433
G1 X103.75 Y85.782 E6.36888
G1 X104.417 Y85.4 E6.39445
G1 X105.12 Y85.088 E6.42003
G1 X105.852 Y84.851 E6.44562
G1 X106.605 Y84.691 E6.47122
G1 X107.37 Y84.61 E6.49681
G1 X107.763 Y84.6 E6.50989
G1 X114.237 Y84.6 E6.72521
G1 X115.005 Y84.64 E6.75079
G1 X115.765 Y84.759 E6.77638
G1 X116.508 Y84.957 E6.80195
G1 X117.227 Y85.231 E6.82754
G1 X117.913 Y85.578 E6.85311
G1 X118.56 Y85.994 E6.8787
G1 X119.16 Y86.475 E6.90427
G1 X119.447 Y86.745 E6.91738
G1 X119.563 Y86.86 E6.92281
G1 X120.08 Y87.429 E6.94838
G1 X120.536 Y88.049 E6.97398
G1 X120.924 Y88.713 E6.99956
G1 X121.242 Y89.413 E7.02513
G1 X121.485 Y90.143 E7.05072
G1 X121.652 Y90.894 E7.07631
G1 X121.739 Y91.658 E7.10188
G1 X121.753 Y92.064 E7.1154
G1 X121.761 Y93.168 E7.15212
G1 X121.862 Y93.65 E7.1685
G1 X121.89 Y94.003 E7.18027
G1 X122.555 Y94.441 E7.20676
G1 X123.066 Y94.81 E7.22772
G1 X123.611 Y95.283 E7.25172
G1 X125.148 Y96.754 E7.32248
G1 X125.467 Y97.079 E7.33763
G1 X126.037 Y97.773 E7.3675
G1 X127.101 Y99.242 E7.42783
G1 X127.922 Y99.245 E7.45514
G1 X128.69 Y99.289 E7.48072
G1 X129.449 Y99.412 E7.5063
G1 X130.191 Y99.614 E7.53187
G1 X130.909 Y99.891 E7.55747
G1 X131.593 Y100.242 E7.58304
G1 X132.238 Y100.661 E7.60862
G1 X132.836 Y101.146 E7.63423
G1 X133.161 Y101.457 E7.64919
G1 X133.277 Y101.575 E7.6547
G1 X133.787 Y102.151 E7.68028
G1 X134.235 Y102.777 E7.70589
G1 X134.615 Y103.445 E7.73145
G1 X134.923 Y104.15 E7.75704
G1 X135.157 Y104.883 E7.78263
G1 X135.314 Y105.636 E7.80821
G1 X135.4 Y106.763 E7.8458
G1 X135.4 Y113.19 E8.05957
G1 X135.36 Y113.958 E8.08515
G1 X135.241 Y114.718 E8.11073
G1 X135.043 Y115.461 E8.13631
G1 X134.769 Y116.18 E8.1619
G1 X134.422 Y116.866 E8.18747
G1 X134.006 Y117.513 E8.21305
G1 X133.525 Y118.113 E8.23863
G1 X133.233 Y118.423 E8.25279
G1 X133.069 Y118.587 E8.26051
G1 X132.497 Y119.101 E8.28608
G1 X131.875 Y119.554 E8.31168
G1 X131.21 Y119.94 E8.33725
G1 X130.508 Y120.255 E8.36284
G1 X129.777 Y120.495 E8.38843
G1 X129.026 Y120.658 E8.41399
G1 X127.9 Y120.754 E8.45158
G1 X127.254 Y120.76 E8.47307
G1 X127.077 Y120.795 E8.47907
G1 X126.029 Y122.237 E8.53836
G1 X125.648 Y122.718 E8.55877
G1 X125.145 Y123.25 E8.58312
G1 X123.604 Y124.724 E8.65404
G1 X123.047 Y125.206 E8.67854
G1 X122.546 Y125.566 E8.69906
G1 X121.907 Y125.987 E8.72451
G1 X121.904 Y126.031 E8.72598
G1 X121.779 Y126.79 E8.75156
G1 X121.762 Y126.85 E8.75364
G1 X121.754 Y127.941 E8.78993
G1 X121.708 Y128.709 E8.81552
G1 X121.582 Y129.468 E8.84111
G1 X121.379 Y130.21 E8.86669
G1 X121.1 Y130.926 E8.89225
G1 X120.747 Y131.61 E8.91785
G1 X120.326 Y132.254 E8.94344
G1 X119.84 Y132.85 E8.96902
G1 X119.542 Y133.161 E8.98334
G1 X119.424 Y133.277 E8.98885
G1 X118.848 Y133.787 E9.01444
G1 X118.222 Y134.235 E9.04004
G1 X117.554 Y134.615 E9.0656
G1 X116.849 Y134.923 E9.09119
G1 X116.116 Y135.157 E9.11678
G1 X115.363 Y135.314 E9.14236
G1 X114.236 Y135.4 E9.17996
G1 X107.763 Y135.4 E9.39525
G1 X106.995 Y135.36 E9.42083
G1 X106.235 Y135.241 E9.44641
G1 X105.492 Y135.043 E9.47199
G1 X104.773 Y134.769 E9.49758
G1 X104.087 Y134.422 E9.52315
G1 X103.44 Y134.006 E9.54873
G1 X102.84 Y133.525 E9.57431
G1 X102.553 Y133.255 E9.58742
G1 X102.436 Y133.139 E9.5929
G1 X101.919 Y132.57 E9.61847
G1 X101.463 Y131.95 E9.64407
G1 X101.074 Y131.286 E9.66966
G1 X100.757 Y130.586 E9.69522
G1 X100.514 Y129.856 E9.72081
G1 X100.347 Y129.105 E9.7464
G1 X100.26 Y128.341 E9.77197
G1 X100.246 Y127.938 E9.78538
G1 X100.239 Y126.928 E9.81898
G1 X100.131 Y126.386 E9.83736
G1 X100.105 Y126.04 E9.8489
G1 X99.761 Y125.789 E9.86306
G1 X98.095 Y124.458 E9.93399
G1 X97.65 Y124.073 E9.95356
G1 X97.126 Y123.531 E9.97863
G1 X95.724 Y121.926 E10.04951
G1 X95.249 Y121.321 E10.0751
G1 X95.003 Y120.943 E10.0901
G1 X94.325 Y120.904 E10.11268
G1 X93.566 Y120.78 E10.13826
G1 X93.508 Y120.764 E10.14026
G1 X92.063 Y120.754 E10.18833
G1 X91.295 Y120.708 E10.21392
G1 X90.536 Y120.583 E10.2395
G1 X89.794 Y120.38 E10.26509
G1 X89.078 Y120.101 E10.29065
G1 X88.394 Y119.75 E10.31622
G1 X87.75 Y119.329 E10.34181
G1 X87.153 Y118.843 E10.36741
G1 X86.861 Y118.564 E10.38084
G1 X86.745 Y118.447 E10.38632
G1 X86.233 Y117.873 E10.41191
G1 X85.782 Y117.25 E10.43749
G1 X85.4 Y116.583 E10.46305
G1 X85.088 Y115.88 E10.48863
G1 X84.851 Y115.148 E10.51422
G1 X84.691 Y114.395 E10.53983
G1 X84.61 Y113.63 E10.56541
G1 X84.6 Y113.237 E10.57849
G1 X84.6 Y106.776 E10.79338
G1 X84.64 Y106.008 E10.81896
G1 X84.759 Y105.248 E10.84455
G1 X84.957 Y104.505 E10.87012
G1 X85.231 Y103.786 E10.89571
G1 X85.578 Y103.1 E10.92128
G1 X85.994 Y102.453 E10.94687
G1 X86.727 Y101.584 E10.98468
G1 X86.856 Y101.453 E10.99079
G1 X87.424 Y100.934 E11.01638
G0 F6000 X87.694 Y101.229
G1 F900 X88.297 Y100.787 E11.04125
G1 X88.944 Y100.411 E11.06614
G1 X89.628 Y100.107 E11.09104
G1 X90.34 Y99.878 E11.11591
G1 X91.072 Y99.725 E11.14078
G1 X92.105 Y99.645 E11.17524
G1 X95.115 Y99.642 E11.27536
G1 X95.29 Y99.349 E11.28671
G1 X95.707 Y98.728 E11.31159
G1 X96.027 Y98.335 E11.32844
G1 X97.438 Y96.721 E11.39975
G1 X97.947 Y96.197 E11.42404
G1 X98.357 Y95.842 E11.44208
G1 X100.014 Y94.52 E11.51259
G1 X100.487 Y94.176 E11.53204
G1 X100.5 Y93.968 E11.53897
G1 X100.627 Y93.231 E11.56384
G1 X100.637 Y93.197 E11.56502
G1 X100.646 Y92.059 E11.60287
G1 X100.692 Y91.312 E11.62777
G1 X100.818 Y90.574 E11.65267
G1 X101.021 Y89.855 E11.67752
G1 X101.3 Y89.161 E11.70239
G1 X101.652 Y88.5 E11.7273
G1 X102.072 Y87.881 E11.75218
G1 X102.718 Y87.145 E11.78475
G1 X102.835 Y87.029 E11.79023
G1 X103.393 Y86.532 E11.81509
G1 X104.002 Y86.096 E11.84
G1 X104.653 Y85.729 E11.86485
G1 X105.34 Y85.433 E11.88973
G1 X106.055 Y85.212 E11.91463
G1 X106.789 Y85.068 E11.9395
G1 X107.763 Y85 E11.97198
G1 X114.237 Y85 E12.1873
G1 X114.984 Y85.04 E12.21218
G1 X115.722 Y85.159 E12.23705
G1 X116.444 Y85.357 E12.26195
G1 X117.14 Y85.63 E12.28681
G1 X117.803 Y85.977 E12.3117
G1 X118.426 Y86.392 E12.3366
G1 X119.165 Y87.029 E12.36905
G1 X119.281 Y87.144 E12.37448
G1 X119.784 Y87.698 E12.39937
G1 X120.224 Y88.303 E12.42425
G1 X120.597 Y88.951 E12.44912
G1 X120.899 Y89.636 E12.47402
G1 X121.126 Y90.348 E12.49888
G1 X121.276 Y91.081 E12.52376
G1 X121.353 Y92.067 E12.55666
G1 X121.361 Y93.203 E12.59444
G1 X121.475 Y93.773 E12.61377
G1 X121.51 Y94.231 E12.62905
G1 X122.335 Y94.775 E12.66192
G1 X122.819 Y95.125 E12.68179
G1 X123.334 Y95.572 E12.70447
G1 X124.871 Y97.043 E12.77523
G1 X125.174 Y97.351 E12.7896
G1 X125.713 Y98.008 E12.81786
G1 X126.897 Y99.642 E12.88498
G1 X127.92 Y99.645 E12.919
G1 X128.667 Y99.689 E12.94389
G1 X129.404 Y99.812 E12.96874
G1 X130.125 Y100.013 E12.99364
G1 X130.82 Y100.29 E13.01852
G1 X131.481 Y100.64 E13.0434
G1 X132.101 Y101.058 E13.06827
G1 X132.876 Y101.738 E13.10256
G1 X132.992 Y101.856 E13.10806
G1 X133.487 Y102.416 E13.13292
G1 X133.92 Y103.027 E13.15783
G1 X134.284 Y103.68 E13.1827
G1 X134.578 Y104.368 E13.20758
G1 X134.796 Y105.084 E13.23247
G1 X134.936 Y105.818 E13.25733
G1 X135 Y106.763 E13.28883
G1 X135 Y113.19 E13.50259
G1 X134.96 Y113.937 E13.52747
G1 X134.841 Y114.675 E13.55234
G1 X134.643 Y115.397 E13.57724
G1 X134.37 Y116.093 E13.6021
G1 X134.023 Y116.756 E13.62699
G1 X133.608 Y117.379 E13.65189
G1 X132.95 Y118.14 E13.68535
G1 X132.786 Y118.304 E13.69306
G1 X132.229 Y118.804 E13.71796
G1 X131.623 Y119.241 E13.74281
G1 X130.973 Y119.612 E13.7677
G1 X130.287 Y119.911 E13.79259
G1 X129.573 Y120.135 E13.81748
G1 X128.84 Y120.282 E13.84235
G1 X127.897 Y120.354 E13.8738
G1 X127.221 Y120.36 E13.89629
G1 X126.846 Y120.431 E13.90898
G1 X125.705 Y122.002 E13.97356
G1 X125.345 Y122.458 E13.99288
G1 X124.869 Y122.96 E14.01589
G1 X123.328 Y124.434 E14.08682
G1 X122.8 Y124.891 E14.11004
G1 X122.326 Y125.232 E14.12946
G1 X121.519 Y125.764 E14.16161
G1 X121.504 Y126.007 E14.16971
G1 X121.379 Y126.745 E14.19461
G1 X121.363 Y126.802 E14.19657
G1 X121.354 Y127.938 E14.23436
G1 X121.308 Y128.685 E14.25925
G1 X121.183 Y129.423 E14.28415
G1 X120.98 Y130.142 E14.309
G1 X120.701 Y130.837 E14.33391
G1 X120.349 Y131.497 E14.35878
G1 X119.93 Y132.116 E14.38365
G1 X119.261 Y132.876 E14.41732
G1 X119.143 Y132.992 E14.42282
G1 X118.583 Y133.487 E14.44768
G1 X117.972 Y133.92 E14.47259
G1 X117.319 Y134.284 E14.49746
G1 X116.631 Y134.578 E14.52234
G1 X115.915 Y134.796 E14.54723
G1 X115.181 Y134.936 E14.57209
G1 X114.236 Y135 E14.60359
G1 X107.763 Y135 E14.81888
G1 X107.016 Y134.96 E14.84376
G1 X106.278 Y134.841 E14.86863
G1 X105.556 Y134.643 E14.89353
G1 X104.86 Y134.37 E14.91839
G1 X104.197 Y134.023 E14.94328
G1 X103.574 Y133.608 E14.96818
G1 X102.835 Y132.971 E15.00063
G1 X102.718 Y132.855 E15.00611
G1 X102.215 Y132.301 E15.031
G1 X101.775 Y131.696 E15.05588
G1 X101.402 Y131.048 E15.08075
G1 X101.1 Y130.363 E15.10565
G1 X100.873 Y129.65 E15.13053
G1 X100.723 Y128.918 E15.15539
G1 X100.646 Y127.935 E15.18818
G1 X100.638 Y126.895 E15.22277
G1 X100.518 Y126.268 E15.24401
G1 X100.486 Y125.824 E15.25881
G1 X100.011 Y125.477 E15.27838
G1 X98.345 Y124.146 E15.3493
