;FLAVOR:Marlin
;TIME:5323
;Filament used: 2.80164m
;Layer height: 0.2
;MINX:84.2
;MINY:84.2
;MINZ:0.2
;MAXX:135.8
;MAXY:135.8
;MAXZ:21
;Generated with Cura_SteamEngine 4.9.0
M140 S65
M105
M190 S65
M104 S250
M105
M109 S250
M82 ;absolute extrusion mode
; Ender 3 Custom Start G-code
G92 E0 ; Reset Extruder
G28 ; Home all axes
G1 Z2.0 F3000 ; Move Z Axis up little to prevent scratching of Heat Bed
G1 X0.1 Y20 Z0.3 F5000.0 ; Move to start position
G1 X0.1 Y200.0 Z0.3 F1500.0 E15 ; Draw the first line
G1 X0.4 Y200.0 Z0.3 F5000.0 ; Move to side a little
G1 X0.4 Y20 Z0.3 F1500.0 E30 ; Draw the second line
G92 E0 ; Reset Extruder
G1 Z2.0 F3000 ; Move Z Axis up little to prevent scratching of Heat Bed
G1 X5 Y20 Z0.3 F5000.0 ; Move over to prevent blob squish
G92 E0
G92 E0
G1 F1500 E-6.5
;LAYER_COUNT:105
;LAYER:0
M107
G0 F6000 X87.135 Y100.643 Z0.2
;TYPE:SKIRT
G1 F1500 E0
G1 F900 X87.767 Y100.17 E0.02626
G1 X88.444 Y99.763 E0.05253
G1 X89.159 Y99.427 E0.0788
G1 X89.904 Y99.165 E0.10507
G1 X90.672 Y98.98 E0.13135
G1 X91.454 Y98.873 E0.1576
G1 X92.082 Y98.845 E0.17851
G1 X92.574 Y98.843 E0.19487
G1 X94.667 Y98.842 E0.26448
G1 X95.045 Y98.278 E0.28706
G1 X95.422 Y97.811 E0.30703
G1 X96.828 Y96.201 E0.37812
G1 X97.396 Y95.616 E0.40524
G1 X97.853 Y95.221 E0.42533
G1 X99.515 Y93.895 E0.49605
G1 X99.729 Y93.739 E0.50486
G1 X99.822 Y93.158 E0.52443
G1 X99.837 Y93.1 E0.52642
G1 X99.846 Y92.052 E0.56128
G1 X99.893 Y91.263 E0.58756
G1 X100.019 Y90.484 E0.61381
G1 X100.223 Y89.721 E0.64008
G1 X100.503 Y88.983 E0.66633
G1 X100.856 Y88.276 E0.69262
G1 X101.279 Y87.61 E0.71886
G1 X101.768 Y86.989 E0.74515
G1 X102.154 Y86.577 E0.76393
G1 X102.271 Y86.461 E0.7694
G1 X102.859 Y85.934 E0.79567
G1 X103.498 Y85.469 E0.82195
G1 X104.18 Y85.072 E0.8482
G1 X104.899 Y84.745 E0.87447
G1 X105.647 Y84.492 E0.90073
G1 X106.417 Y84.317 E0.927
G1 X107.201 Y84.22 E0.95327
G1 X107.763 Y84.2 E0.97198
G1 X114.237 Y84.2 E1.1873
G1 X115.026 Y84.24 E1.21358
G1 X115.806 Y84.359 E1.23982
G1 X116.571 Y84.557 E1.2661
G1 X117.311 Y84.831 E1.29235
G1 X118.02 Y85.179 E1.31862
G1 X118.691 Y85.597 E1.34491
G1 X119.315 Y86.08 E1.37116
G1 X119.729 Y86.461 E1.38987
G1 X119.845 Y86.576 E1.3953
G1 X120.376 Y87.159 E1.42153
G1 X120.847 Y87.794 E1.44783
G1 X121.25 Y88.473 E1.47409
G1 X121.583 Y89.189 E1.50035
G1 X121.842 Y89.935 E1.52662
G1 X122.024 Y90.703 E1.55287
G1 X122.128 Y91.486 E1.57914
G1 X122.153 Y92.061 E1.59828
G1 X122.16 Y93.126 E1.6337
G1 X122.245 Y93.517 E1.64701
G1 X122.274 Y93.775 E1.65565
G1 X122.775 Y94.106 E1.67562
G1 X123.311 Y94.494 E1.69763
G1 X123.889 Y94.996 E1.72309
G1 X125.429 Y96.472 E1.79404
G1 X125.761 Y96.809 E1.80977
G1 X126.357 Y97.535 E1.84101
G1 X127.306 Y98.842 E1.89474
G1 X127.946 Y98.845 E1.91602
G1 X128.735 Y98.892 E1.94231
G1 X129.514 Y99.017 E1.96855
G1 X130.277 Y99.221 E1.99482
G1 X131.016 Y99.501 E2.02111
G1 X131.722 Y99.855 E2.04737
G1 X132.389 Y100.277 E2.07363
G1 X133.01 Y100.765 E2.09989
G1 X133.446 Y101.177 E2.11985
G1 X133.562 Y101.295 E2.12535
G1 X134.087 Y101.885 E2.15162
G1 X134.549 Y102.526 E2.1779
G1 X134.944 Y103.21 E2.20417
G1 X135.267 Y103.93 E2.23042
G1 X135.517 Y104.679 E2.25668
G1 X135.689 Y105.45 E2.28295
G1 X135.782 Y106.234 E2.30921
G1 X135.8 Y106.763 E2.32682
G1 X135.8 Y113.234 E2.54204
G1 X135.76 Y114.023 E2.56832
G1 X135.641 Y114.803 E2.59456
G1 X135.443 Y115.568 E2.62084
G1 X135.169 Y116.308 E2.64709
G1 X134.821 Y117.017 E2.67336
G1 X134.403 Y117.688 E2.69965
G1 X133.92 Y118.312 E2.7259
G1 X133.538 Y118.726 E2.74463
G1 X133.419 Y118.846 E2.75025
G1 X132.836 Y119.378 E2.7765
G1 X132.201 Y119.848 E2.80278
G1 X131.522 Y120.252 E2.82906
G1 X130.806 Y120.585 E2.85532
G1 X130.06 Y120.843 E2.88158
G1 X129.292 Y121.025 E2.90783
G1 X128.509 Y121.129 E2.9341
G1 X127.949 Y121.154 E2.95274
G1 X127.338 Y121.159 E2.97307
G1 X127.299 Y121.167 E2.97439
G1 X126.331 Y122.498 E3.02913
G1 X125.835 Y123.112 E3.05538
G1 X125.413 Y123.548 E3.07556
G1 X123.878 Y125.015 E3.14618
G1 X123.294 Y125.52 E3.17186
G1 X122.769 Y125.899 E3.1934
G1 X122.277 Y126.224 E3.21301
G1 X122.176 Y126.841 E3.23381
G1 X122.162 Y126.893 E3.2356
G1 X122.154 Y127.944 E3.27055
G1 X122.108 Y128.733 E3.29684
G1 X121.982 Y129.512 E3.32309
G1 X121.778 Y130.275 E3.34936
G1 X121.499 Y131.014 E3.37563
G1 X121.146 Y131.72 E3.40188
G1 X120.723 Y132.387 E3.42815
G1 X120.235 Y133.008 E3.45442
G1 X119.822 Y133.446 E3.47444
G1 X119.704 Y133.562 E3.47995
G1 X119.114 Y134.087 E3.50621
G1 X118.473 Y134.549 E3.53249
G1 X117.789 Y134.944 E3.55877
G1 X117.069 Y135.267 E3.58501
G1 X116.32 Y135.517 E3.61127
G1 X115.549 Y135.689 E3.63755
G1 X114.765 Y135.782 E3.66381
G1 X114.236 Y135.8 E3.68141
G1 X107.763 Y135.8 E3.89671
G1 X106.974 Y135.76 E3.92298
G1 X106.194 Y135.641 E3.94922
G1 X105.429 Y135.443 E3.97551
G1 X104.689 Y135.169 E4.00175
G1 X103.98 Y134.821 E4.02802
G1 X103.309 Y134.403 E4.05431
G1 X102.685 Y133.92 E4.08056
G1 X102.271 Y133.539 E4.09927
G1 X102.154 Y133.423 E4.10475
G1 X101.622 Y132.839 E4.13103
G1 X101.152 Y132.205 E4.15728
G1 X100.749 Y131.526 E4.18354
G1 X100.416 Y130.81 E4.2098
G1 X100.157 Y130.064 E4.23607
G1 X99.975 Y129.296 E4.26232
G1 X99.871 Y128.513 E4.28859
G1 X99.846 Y127.939 E4.3077
G1 X99.839 Y126.919 E4.34163
G1 X99.746 Y126.471 E4.35684
G1 X99.729 Y126.261 E4.36385
G1 X99.515 Y126.105 E4.37266
G1 X97.853 Y124.779 E4.44338
G1 X97.381 Y124.37 E4.46415
G1 X96.828 Y123.799 E4.49059
G1 X95.422 Y122.189 E4.56168
G1 X94.933 Y121.568 E4.58797
G1 X94.777 Y121.328 E4.59749
G1 X94.346 Y121.303 E4.61185
G1 X93.567 Y121.18 E4.63808
G1 X93.507 Y121.164 E4.64015
G1 X92.061 Y121.154 E4.68824
G1 X91.273 Y121.108 E4.71449
G1 X90.493 Y120.983 E4.74077
G1 X89.73 Y120.78 E4.76703
G1 X88.991 Y120.501 E4.7933
G1 X88.285 Y120.148 E4.81956
G1 X87.617 Y119.726 E4.84583
G1 X86.996 Y119.238 E4.8721
G1 X86.577 Y118.846 E4.89119
G1 X86.461 Y118.729 E4.89667
G1 X85.934 Y118.141 E4.92293
G1 X85.469 Y117.502 E4.94921
G1 X85.072 Y116.82 E4.97546
G1 X84.745 Y116.101 E5.00173
G1 X84.492 Y115.353 E5.028
G1 X84.317 Y114.583 E5.05426
G1 X84.22 Y113.799 E5.08053
G1 X84.2 Y113.237 E5.09924
G1 X84.2 Y106.763 E5.31456
G1 X84.24 Y105.974 E5.34084
G1 X84.359 Y105.194 E5.36708
G1 X84.557 Y104.429 E5.39337
G1 X84.831 Y103.689 E5.41961
G1 X85.179 Y102.98 E5.44588
G1 X85.597 Y102.309 E5.47217
G1 X86.08 Y101.685 E5.49842
G1 X86.438 Y101.295 E5.51603
G1 X86.554 Y101.177 E5.52153
G1 X87.135 Y100.643 E5.54778
G0 F6000 X87.406 Y100.938
G1 F900 X88.024 Y100.48 E5.57336
G1 X88.686 Y100.088 E5.59895
G1 X89.385 Y99.767 E5.62453
G1 X90.114 Y99.521 E5.65012
G1 X90.864 Y99.352 E5.67569
G1 X91.628 Y99.261 E5.70128
G1 X92.084 Y99.245 E5.71646
G1 X92.574 Y99.243 E5.73276
G1 X94.888 Y99.242 E5.80972
G1 X94.949 Y99.14 E5.81367
G1 X95.377 Y98.501 E5.83925
G1 X95.723 Y98.074 E5.85753
G1 X97.129 Y96.464 E5.92863
G1 X97.669 Y95.908 E5.95441
G1 X98.103 Y95.533 E5.97348
G1 X99.765 Y94.207 E6.0442
G1 X100.097 Y93.965 E6.05786
G1 X100.221 Y93.202 E6.08357
G1 X100.237 Y93.143 E6.08561
G1 X100.246 Y92.055 E6.1218
G1 X100.293 Y91.287 E6.14739
G1 X100.418 Y90.528 E6.17297
G1 X100.622 Y89.787 E6.19853
G1 X100.902 Y89.07 E6.22414
G1 X101.254 Y88.387 E6.24969
G1 X101.676 Y87.743 E6.2753
G1 X102.162 Y87.147 E6.30088
G1 X102.436 Y86.861 E6.31405
G1 X102.553 Y86.745 E6.31953
G1 X103.127 Y86.233 E6.34511
G1 X103.75 Y85.782 E6.3707
G1 X104.417 Y85.4 E6.39626
G1 X105.12 Y85.088 E6.42184
G1 X105.852 Y84.851 E6.44743
G1 X106.605 Y84.691 E6.47304
G1 X107.37 Y84.61 E6.49862
G1 X107.763 Y84.6 E6.5117
G1 X114.237 Y84.6 E6.72702
G1 X115.005 Y84.64 E6.7526
G1 X115.765 Y84.759 E6.77819
G1 X116.508 Y84.957 E6.80376
G1 X117.227 Y85.231 E6.82935
G1 X117.913 Y85.578 E6.85492
G1 X118.56 Y85.994 E6.88051
G1 X119.16 Y86.475 E6.90608
G1 X119.447 Y86.745 E6.91919
G1 X119.563 Y86.86 E6.92462
G1 X120.08 Y87.429 E6.95019
G1 X120.536 Y88.049 E6.97579
G1 X120.924 Y88.713 E7.00137
G1 X121.242 Y89.413 E7.02694
G1 X121.485 Y90.143 E7.05253
G1 X121.652 Y90.894 E7.07812
G1 X121.739 Y91.658 E7.1037
G1 X121.753 Y92.064 E7.11721
G1 X121.761 Y93.168 E7.15393
G1 X121.86 Y93.641 E7.17
G1 X121.889 Y94.001 E7.18201
G1 X122.555 Y94.44 E7.20854
G1 X123.064 Y94.808 E7.22943
G1 X123.612 Y95.285 E7.2536
G1 X125.152 Y96.761 E7.32455
G1 X125.468 Y97.082 E7.33953
G1 X126.033 Y97.77 E7.36914
G1 X127.102 Y99.242 E7.42965
G1 X127.568 Y99.242 E7.44514
G1 X127.943 Y99.245 E7.45762
G1 X128.711 Y99.291 E7.48321
G1 X129.47 Y99.417 E7.5088
G1 X130.212 Y99.621 E7.53439
G1 X130.928 Y99.9 E7.55995
G1 X131.612 Y100.253 E7.58555
G1 X132.255 Y100.674 E7.61111
G1 X132.851 Y101.16 E7.63669
G1 X133.161 Y101.457 E7.65097
G1 X133.277 Y101.575 E7.65647
G1 X133.787 Y102.151 E7.68206
G1 X134.235 Y102.777 E7.70767
G1 X134.615 Y103.445 E7.73323
G1 X134.923 Y104.15 E7.75882
G1 X135.157 Y104.883 E7.78441
G1 X135.314 Y105.636 E7.80999
G1 X135.4 Y106.763 E7.84758
G1 X135.4 Y113.234 E8.06281
G1 X135.36 Y114.002 E8.08839
G1 X135.241 Y114.762 E8.11397
G1 X135.043 Y115.505 E8.13955
G1 X134.769 Y116.224 E8.16514
G1 X134.422 Y116.91 E8.19071
G1 X134.006 Y117.557 E8.21629
G1 X133.525 Y118.157 E8.24187
G1 X133.254 Y118.445 E8.25502
G1 X133.135 Y118.565 E8.26064
G1 X132.566 Y119.082 E8.28621
G1 X131.946 Y119.537 E8.31179
G1 X131.283 Y119.926 E8.33736
G1 X130.582 Y120.243 E8.36295
G1 X129.852 Y120.487 E8.38855
G1 X129.101 Y120.653 E8.41413
G1 X128.337 Y120.74 E8.43971
G1 X127.945 Y120.754 E8.45275
G1 X127.299 Y120.76 E8.47424
G1 X127.068 Y120.806 E8.48207
G1 X126.008 Y122.263 E8.542
G1 X125.524 Y122.86 E8.56756
G1 X125.137 Y123.259 E8.58605
G1 X123.602 Y124.726 E8.65667
G1 X123.047 Y125.206 E8.68108
G1 X122.548 Y125.565 E8.70152
G1 X121.906 Y125.988 E8.72709
G1 X121.903 Y126.037 E8.72873
G1 X121.777 Y126.796 E8.75432
G1 X121.762 Y126.849 E8.75615
G1 X121.754 Y127.941 E8.79247
G1 X121.708 Y128.709 E8.81806
G1 X121.583 Y129.468 E8.84364
G1 X121.379 Y130.21 E8.86924
G1 X121.1 Y130.926 E8.8948
G1 X120.747 Y131.61 E8.9204
G1 X120.326 Y132.254 E8.94599
G1 X119.84 Y132.85 E8.97157
G1 X119.542 Y133.161 E8.98589
G1 X119.424 Y133.277 E8.99139
G1 X118.848 Y133.787 E9.01698
G1 X118.222 Y134.235 E9.04259
G1 X117.554 Y134.615 E9.06815
G1 X116.849 Y134.923 E9.09374
G1 X116.116 Y135.157 E9.11933
G1 X115.363 Y135.314 E9.14491
G1 X114.236 Y135.4 E9.1825
G1 X107.763 Y135.4 E9.3978
G1 X106.995 Y135.36 E9.42338
G1 X106.235 Y135.241 E9.44896
G1 X105.492 Y135.043 E9.47454
G1 X104.773 Y134.769 E9.50013
G1 X104.087 Y134.422 E9.5257
G1 X103.44 Y134.006 E9.55128
G1 X102.84 Y133.525 E9.57686
G1 X102.553 Y133.255 E9.58996
G1 X102.436 Y133.139 E9.59544
G1 X101.919 Y132.57 E9.62101
G1 X101.463 Y131.95 E9.64661
G1 X101.074 Y131.286 E9.67221
G1 X100.757 Y130.586 E9.69777
G1 X100.514 Y129.856 E9.72336
G1 X100.347 Y129.105 E9.74894
G1 X100.26 Y128.341 E9.77452
G1 X100.246 Y127.937 E9.78796
G1 X100.239 Y126.882 E9.82305
G1 X100.132 Y126.35 E9.8411
G1 X100.109 Y126.044 E9.85131
G1 X99.765 Y125.793 E9.86547
G1 X98.103 Y124.467 E9.93619
G1 X97.654 Y124.078 E9.95595
G1 X97.129 Y123.536 E9.98104
G1 X95.723 Y121.926 E10.05214
G1 X95.248 Y121.321 E10.07772
G1 X95.001 Y120.94 E10.09282
G1 X94.369 Y120.904 E10.11388
G1 X93.61 Y120.78 E10.13946
G1 X93.553 Y120.764 E10.14143
G1 X92.064 Y120.754 E10.19095
G1 X91.296 Y120.708 E10.21654
G1 X90.537 Y120.584 E10.24212
G1 X89.795 Y120.381 E10.26771
G1 X89.078 Y120.102 E10.2933
G1 X88.394 Y119.75 E10.31888
G1 X87.751 Y119.329 E10.34444
G1 X87.154 Y118.844 E10.37003
G1 X86.861 Y118.564 E10.38351
G1 X86.745 Y118.447 E10.38899
G1 X86.233 Y117.873 E10.41457
G1 X85.782 Y117.25 E10.44015
G1 X85.4 Y116.583 E10.46572
G1 X85.088 Y115.88 E10.4913
G1 X84.851 Y115.148 E10.51689
G1 X84.691 Y114.395 E10.54249
G1 X84.61 Y113.63 E10.56808
G1 X84.6 Y113.237 E10.58115
G1 X84.6 Y106.763 E10.79648
G1 X84.64 Y105.995 E10.82206
G1 X84.759 Y105.235 E10.84764
G1 X84.957 Y104.492 E10.87322
G1 X85.231 Y103.773 E10.89881
G1 X85.578 Y103.087 E10.92438
G1 X85.994 Y102.44 E10.94996
G1 X86.723 Y101.575 E10.98759
G1 X86.839 Y101.457 E10.99309
G1 X87.406 Y100.938 E11.01866
G0 F6000 X87.676 Y101.233
G1 F900 X88.279 Y100.79 E11.04354
G1 X88.926 Y100.414 E11.06843
G1 X89.609 Y100.109 E11.09331
G1 X90.321 Y99.879 E11.1182
G1 X91.053 Y99.726 E11.14307
G1 X92.086 Y99.645 E11.17753
G1 X92.575 Y99.643 E11.1938
G1 X95.114 Y99.642 E11.27824
G1 X95.292 Y99.345 E11.28976
G1 X95.71 Y98.725 E11.31463
G1 X96.025 Y98.338 E11.33123
G1 X97.431 Y96.728 E11.40232
G1 X97.942 Y96.201 E11.42674
G1 X98.352 Y95.846 E11.44477
G1 X100.014 Y94.52 E11.51549
G1 X100.485 Y94.176 E11.53489
G1 X100.497 Y93.985 E11.54126
G1 X100.621 Y93.247 E11.56615
G1 X100.637 Y93.191 E11.56808
G1 X100.646 Y92.058 E11.60577
G1 X100.692 Y91.312 E11.63063
G1 X100.818 Y90.574 E11.65553
G1 X101.021 Y89.854 E11.68041
G1 X101.301 Y89.16 E11.7053
G1 X101.652 Y88.5 E11.73016
G1 X102.072 Y87.881 E11.75504
G1 X102.718 Y87.145 E11.78761
G1 X102.835 Y87.029 E11.79309
G1 X103.393 Y86.532 E11.81795
G1 X104.002 Y86.096 E11.84286
G1 X104.653 Y85.729 E11.86771
G1 X105.34 Y85.433 E11.89259
G1 X106.055 Y85.212 E11.91749
G1 X106.789 Y85.068 E11.94236
G1 X107.763 Y85 E11.97484
G1 X114.237 Y85 E12.19016
G1 X114.984 Y85.04 E12.21504
G1 X115.722 Y85.159 E12.23991
G1 X116.444 Y85.357 E12.26481
G1 X117.14 Y85.63 E12.28967
G1 X117.803 Y85.977 E12.31456
G1 X118.426 Y86.392 E12.33946
G1 X119.165 Y87.029 E12.37191
G1 X119.281 Y87.144 E12.37734
G1 X119.784 Y87.698 E12.40223
G1 X120.224 Y88.303 E12.42711
G1 X120.597 Y88.951 E12.45198
G1 X120.899 Y89.636 E12.47688
G1 X121.126 Y90.348 E12.50174
G1 X121.276 Y91.081 E12.52662
G1 X121.353 Y92.067 E12.55952
G1 X121.361 Y93.204 E12.59733
G1 X121.474 Y93.764 E12.61633
G1 X121.51 Y94.23 E12.63188
G1 X122.334 Y94.774 E12.66472
G1 X122.817 Y95.123 E12.68454
G1 X123.336 Y95.573 E12.70739
G1 X124.876 Y97.049 E12.77833
G1 X125.175 Y97.354 E12.79254
G1 X125.71 Y98.005 E12.82057
G1 X126.899 Y99.643 E12.88789
G1 X127.565 Y99.642 E12.91004
G1 X127.94 Y99.645 E12.92251
G1 X128.687 Y99.691 E12.9474
G1 X129.424 Y99.817 E12.97227
G1 X130.144 Y100.02 E12.99715
G1 X130.838 Y100.299 E13.02203
G1 X131.498 Y100.65 E13.04689
G1 X132.118 Y101.07 E13.0718
G1 X132.876 Y101.738 E13.1054
G1 X132.992 Y101.856 E13.11091
G1 X133.487 Y102.416 E13.13577
G1 X133.92 Y103.027 E13.16067
G1 X134.284 Y103.68 E13.18554
G1 X134.578 Y104.368 E13.21042
G1 X134.796 Y105.084 E13.23532
G1 X134.936 Y105.818 E13.26017
G1 X135 Y106.763 E13.29167
G1 X135 Y113.234 E13.5069
G1 X134.96 Y113.981 E13.53178
G1 X134.841 Y114.719 E13.55664
G1 X134.643 Y115.441 E13.58154
G1 X134.37 Y116.137 E13.60641
G1 X134.023 Y116.8 E13.6313
G1 X133.608 Y117.423 E13.6562
G1 X132.97 Y118.163 E13.68869
G1 X132.851 Y118.283 E13.69432
G1 X132.297 Y118.785 E13.71918
G1 X131.692 Y119.225 E13.74406
G1 X131.044 Y119.599 E13.76895
G1 X130.359 Y119.901 E13.79385
G1 X129.647 Y120.128 E13.8187
G1 X128.914 Y120.277 E13.84358
G1 X127.942 Y120.354 E13.87601
G1 X127.263 Y120.36 E13.89859
G1 X126.836 Y120.443 E13.91306
G1 X125.684 Y122.027 E13.97821
G1 X125.213 Y122.608 E14.00308
G1 X124.86 Y122.97 E14.0199
G1 X123.325 Y124.437 E14.09052
G1 X122.8 Y124.891 E14.11361
G1 X122.328 Y125.231 E14.13295
G1 X121.519 Y125.765 E14.16519
G1 X121.503 Y126.013 E14.17346
G1 X121.377 Y126.75 E14.19833
G1 X121.363 Y126.8 E14.20005
G1 X121.354 Y127.938 E14.23791
G1 X121.308 Y128.685 E14.2628
G1 X121.183 Y129.422 E14.28766
G1 X120.98 Y130.142 E14.31254
G1 X120.701 Y130.836 E14.33742
G1 X120.35 Y131.497 E14.36231
G1 X119.93 Y132.116 E14.38719
G1 X119.261 Y132.876 E14.42087
G1 X119.143 Y132.992 E14.42637
G1 X118.583 Y133.487 E14.45123
G1 X117.972 Y133.92 E14.47614
G1 X117.319 Y134.284 E14.501
G1 X116.631 Y134.578 E14.52589
G1 X115.915 Y134.796 E14.55078
G1 X115.181 Y134.936 E14.57563
G1 X114.236 Y135 E14.60714
G1 X107.763 Y135 E14.82243
G1 X107.016 Y134.96 E14.84731
G1 X106.278 Y134.841 E14.87217
G1 X105.556 Y134.643 E14.89707
G1 X104.86 Y134.37 E14.92194
G1 X104.197 Y134.023 E14.94683
G1 X103.574 Y133.608 E14.97173
G1 X102.835 Y132.971 E15.00418
G1 X102.718 Y132.855 E15.00966
G1 X102.215 Y132.301 E15.03455
G1 X101.775 Y131.696 E15.05943
G1 X101.402 Y131.048 E15.08429
G1 X101.1 Y130.363 E15.10919
G1 X100.873 Y129.65 E15.13408
G1 X100.723 Y128.918 E15.15893
